azure-dotcom/lob-applications.svg

<svg xmlns="http://www.w3.org/2000/svg" width="182" height="125" viewBox="0 0 182 125">
  <g fill="none" fill-rule="evenodd">
    <path fill="#A0A1A2" d="M1.37040213,108.78126 C1.37040213,111.916701 4.3398166,114.4716 7.93410953,114.4716 L172.401324,114.4716 C176.02542,114.4716 178.983907,111.916701 178.983907,108.78126 L178.999802,7.0104 L1.37040213,7.0104 L1.37040213,108.78126 Z" />
    <polygon fill="#0072C6" points="47.36 103.852 62.923 103.852 62.923 59.078 47.36 59.078" />
    <polygon fill="#68217A" points="100.016 51.278 82.715 26.087 52.802 48.068 50.459 44.88 83.663 20.481 100.762 45.375 127.44 22.074 129.124 24.005 127.634 25.305 128.552 26.355" />
    <polygon fill="#59B4D9" points="70.525 103.852 86.088 103.852 86.088 48.549 70.525 48.549" />
    <polygon fill="#3999C6" points="93.664 103.852 109.281 103.852 109.281 66.268 93.664 66.268" />
    <polygon fill="#0072C6" points="116.855 103.852 132.418 103.852 132.418 52.829 116.855 52.829" />
    <path fill="#804998" d="M56.8441021 46.7156C56.8441021 49.9936 54.1871021 52.6506 50.9091021 52.6506 47.6321021 52.6506 44.9751021 49.9936 44.9751021 46.7156 44.9751021 43.4386 47.6321021 40.7816 50.9091021 40.7816 54.1871021 40.7816 56.8441021 43.4386 56.8441021 46.7156M105.916302 48.327C105.916302 51.604 103.259302 54.262 99.9813021 54.262 96.7043021 54.262 94.0473021 51.604 94.0473021 48.327 94.0473021 45.05 96.7043021 42.393 99.9813021 42.393 103.259302 42.393 105.916302 45.05 105.916302 48.327M134.916302 22.327C134.916302 25.604 132.259302 28.262 128.981302 28.262 125.704302 28.262 123.047302 25.604 123.047302 22.327 123.047302 19.05 125.704302 16.393 128.981302 16.393 132.259302 16.393 134.916302 19.05 134.916302 22.327" />
    <path fill="#FFF" d="M8.67080213,4.4716 C4.98980213,4.4716 1.99980213,6.7386 1.99980213,9.5386 L1.99980213,27.9446 L1.99980213,36.3676 L1.99980213,107.0326 C1.99980213,109.8296 4.98980213,112.1016 8.67080213,112.1016 L15.9418021,112.1016 L146.929802,4.4716 L8.67080213,4.4716 Z" opacity=".23" />
    <path fill="#5D5D5D" d="M176.181002,105.409 C176.181002,111.534 175.407002,112.634 169.286002,112.634 L13.0130021,112.639 C6.88800213,112.639 6.27600213,111.538 6.27600213,105.418 L6.26400213,13.013 C6.26400213,6.897 6.87800213,6.87 13.0040021,6.87 L169.277002,6.865 C175.395002,6.865 176.172002,6.893 176.174002,13.009 L176.181002,105.409 Z M87.1140021,119.508 C86.1220021,119.508 85.3140021,119.12 85.3140021,118.131 C85.3140021,117.132 86.1220021,116.758 87.1140021,116.758 L93.1120021,116.753 C94.1010021,116.758 94.9100021,117.132 94.9120021,118.131 C94.9120021,119.12 94.1010021,119.504 93.1120021,119.508 L87.1140021,119.508 Z M79.9050021,2.746 L97.8920021,2.746 C98.2270021,2.746 98.4890021,3.102 98.4890021,3.435 C98.4910021,3.768 98.2270021,4.119 97.8920021,4.119 L79.9050021,4.124 C79.5770021,4.124 79.3090021,3.772 79.3040021,3.435 C79.3090021,3.107 79.5770021,2.751 79.9050021,2.746 L79.9050021,2.746 Z M173.083002,0 L7.71500213,0.005 C3.16200213,0.01 -0.00299786913,3.879 2.1308708e-06,8.446 L0.0110021309,116.642 C0.0110021309,121.2 3.17100213,125 7.72900213,125 L173.095002,124.995 C177.664002,124.995 182.292002,121.196 182.292002,116.633 L182.281002,8.437 C182.281002,3.874 177.654002,0 173.083002,0 L173.083002,0 Z" />
  </g>
</svg>

<svg xmlns="http://www.w3.org/2000/svg" width="182" height="125"><g fill="none" fill-rule="evenodd"><path fill="#A0A1A2" d="M1.37 108.781c0 3.136 2.97 5.69 6.564 5.69h164.467c3.624 0 6.583-2.554 6.583-5.69L179 7.011H1.37v101.77z"/><path fill="#0072C6" d="M47.36 103.852h15.563V59.078H47.36z"/><path fill="#68217A" d="M100.016 51.278L82.715 26.087 52.802 48.068l-2.343-3.188 33.204-24.399 17.099 24.894 26.678-23.301 1.684 1.931-1.49 1.3.918 1.05z"/><path fill="#59B4D9" d="M70.525 103.852h15.563V48.549H70.525z"/><path fill="#3999C6" d="M93.664 103.852h15.617V66.268H93.664z"/><path fill="#0072C6" d="M116.855 103.852h15.563V52.829h-15.563z"/><path fill="#804998" d="M56.844 46.716a5.935 5.935 0 1 1-11.87 0 5.935 5.935 0 0 1 11.87 0m49.072 1.611a5.935 5.935 0 1 1-11.87 0 5.935 5.935 0 0 1 11.87 0m29-26a5.935 5.935 0 1 1-11.87 0 5.935 5.935 0 0 1 11.87 0"/><path fill="#FFF" d="M8.67 4.472C4.99 4.472 2 6.739 2 9.539v97.494c0 2.797 2.99 5.069 6.67 5.069h7.272L146.93 4.472H8.67z" opacity=".23"/><path fill="#5D5D5D" d="M176.181 105.409c0 6.125-.774 7.225-6.895 7.225l-156.273.005c-6.125 0-6.737-1.101-6.737-7.221l-.012-92.405c0-6.116.614-6.143 6.74-6.143l156.273-.005c6.118 0 6.895.028 6.897 6.144l.007 92.4zm-89.067 14.099c-.992 0-1.8-.388-1.8-1.377 0-.999.808-1.373 1.8-1.373l5.998-.005c.989.005 1.798.379 1.8 1.378 0 .989-.811 1.373-1.8 1.377h-5.998zM79.905 2.746h17.987c.335 0 .597.356.597.689.002.333-.262.684-.597.684l-17.987.005c-.328 0-.596-.352-.601-.689.005-.328.273-.684.601-.689zM173.083 0L7.715.005C3.162.01-.003 3.879 0 8.446l.011 108.196c0 4.558 3.16 8.358 7.718 8.358l165.366-.005c4.569 0 9.197-3.799 9.197-8.362l-.011-108.196c0-4.563-4.627-8.437-9.198-8.437z"/></g></svg>
